X: 65
T: John White's mother
C: anon.
O: Ireland
B: Francis O'Neill: "The Dance Music of Ireland" (1907) no. 65
R: Double jig
Z: Transcribed by Frank Nordberg - http://www.musicaviva.com
F: http://www.musicaviva.com/abc/tunes/ireland/oneill-1001/oneill-1001-006
5.abc
M: 6/8
L: 1/8
K: D
d|EDE AFA|dcB AFD|B>EE EFA|B>EE E2F|DED FDF|ABc dAF|A>DD DED|A>FD D2:|
|:A|def edB|AFA d2c|Bee g/f/ed|Bee e2A|def edB|dAG FGE|DFA deg|f>dd d2:|
W:
W:
W: From Musica Viva - http://www.musicaviva.com
W: the Internet center for free sheet music downloads.


